X: 24
T: Irish Washerwoman, The
Z: Finnbarr
S: https://thesession.org/tunes/92#setting49528
R: jig
M: 6/8
L: 1/8
K: Gmaj
|:dc|BGG DGG|BGB dcB|cAA DAA|cAc edc|
BGG DGG|BGB dcB|cBc Adc|BGG G3:|
|:dg2 dg2|dg2 dba|gf2 df2|df2 dagf|
dGG BGG|cGG BBB|cBc Adc|BGG G3:|

